img/forum.svg

<svg xmlns="http://www.w3.org/2000/svg" width="48" height="24">
  <path fill-rule="evenodd" d="M39.387 22.243c.71-.045 1.529.085 2.063-.109.494.22 1.136-.146 1.638-.054.348.066.355.335.692.383.863-.706 1.484-1.668 2.266-2.469-.088-.307-.138-.657-.211-.984l-.311-.489h-.334c-.032-.243-.082-.481-.21-.67-.205.042-.307.008-.526 0-.231-.01-.459.058-.581 0-.379-.242-.772-.626-1.212-1.041-.269-.253-.965-.894-1.324-.935-.35-.036-.761.212-1.162.327-.396.118-.858.28-1.215.331-.753.117-1.647.079-2.486.116-5.254.182-11.072.578-16.206.643 6.414-3.538 12.951-7.481 19.386-11.105.482-.277 1.093-.716 1.425-.765.477-.08 1.073.096 1.535.155.52.073 1.007.143 1.425.278 1.277-.737 2.713-1.314 3.963-2.083-.286-.123-.494-.322-.686-.553a.36.36 0 00.001-.127c.226-.115.456-.219.678-.316-.382-.522-1.09-.84-1.761-1.232-.056-.066-.177-.13-.104-.234-.702-.442-1.369-.92-2.114-1.313-.734.26-1.123.515-1.863.769-.118.062-.312-.141-.476-.166-1.079.721-2.254 1.238-3.437 1.751-.927.412-1.805.886-2.534 1.373-.266.176-.566.326-.846.496l-.737.56c-9.029 4.69-16.38 8.002-25.083 12.138.145.111.301.188.4.346l-3.782 1.408c-1.091.62-2.888 1.314-4.384.823-.467.211-.919.443-1.274.767.439.238.909.476 1.393.719a1.79 1.79 0 00-.219.11c1.447.687 3.128 1.538 4.646 2.196.544.237 1.134.526 1.638.655.398.1.816.025 1.22 0a116.23 116.23 0 004.914-.326c.933-.084 1.894-.276 2.803-.274 1.496.005 2.987.052 4.493.052 1.518 0 3.058-.203 4.597-.273a527.76 527.76 0 009.245-.492c1.582-.097 3.142-.279 4.657-.386z"/>
</svg>

<svg 
 xmlns="http://www.w3.org/2000/svg"
 xmlns:xlink="http://www.w3.org/1999/xlink"
 width="48px" height="24px">
<path fill-rule="evenodd"  fill="rgb(0, 0, 0)"
 d="M39.387,22.243 C40.097,22.198 40.916,22.328 41.450,22.134 C41.944,22.354 42.586,21.988 43.088,22.080 C43.436,22.146 43.443,22.415 43.780,22.463 C44.643,21.757 45.264,20.795 46.046,19.994 C45.958,19.687 45.908,19.337 45.835,19.010 L45.524,18.521 C45.407,18.521 45.298,18.521 45.190,18.521 C45.158,18.278 45.108,18.040 44.980,17.851 C44.775,17.893 44.673,17.859 44.454,17.851 C44.223,17.841 43.995,17.909 43.873,17.851 C43.494,17.609 43.101,17.225 42.661,16.810 C42.392,16.557 41.696,15.916 41.337,15.875 C40.987,15.839 40.576,16.087 40.175,16.202 C39.779,16.320 39.317,16.482 38.960,16.533 C38.207,16.650 37.313,16.612 36.474,16.649 C31.220,16.831 25.402,17.227 20.268,17.292 C26.682,13.754 33.219,9.811 39.654,6.187 C40.136,5.910 40.747,5.471 41.079,5.422 C41.556,5.342 42.152,5.518 42.614,5.577 C43.134,5.650 43.621,5.720 44.039,5.855 C45.316,5.118 46.752,4.541 48.002,3.772 C47.716,3.649 47.508,3.450 47.316,3.219 C47.324,3.179 47.324,3.137 47.317,3.092 C47.543,2.977 47.773,2.873 47.995,2.776 C47.613,2.254 46.905,1.936 46.234,1.544 C46.178,1.478 46.057,1.414 46.130,1.310 C45.428,0.868 44.761,0.390 44.016,-0.003 C43.282,0.257 42.893,0.512 42.153,0.766 C42.035,0.828 41.841,0.625 41.677,0.600 C40.598,1.321 39.423,1.838 38.240,2.351 C37.313,2.763 36.435,3.237 35.706,3.724 C35.440,3.900 35.140,4.050 34.860,4.220 L34.123,4.780 C25.094,9.470 17.743,12.782 9.040,16.918 C9.185,17.029 9.341,17.106 9.440,17.264 L5.658,18.672 C4.567,19.292 2.770,19.986 1.274,19.495 C0.807,19.706 0.355,19.938 -0.000,20.262 C0.439,20.500 0.909,20.738 1.393,20.981 C1.315,21.015 1.241,21.050 1.174,21.091 C2.621,21.778 4.302,22.629 5.820,23.287 C6.364,23.524 6.954,23.813 7.458,23.942 C7.856,24.042 8.274,23.967 8.678,23.942 C10.367,23.859 11.974,23.764 13.592,23.616 C14.525,23.532 15.486,23.340 16.395,23.342 C17.891,23.347 19.382,23.394 20.888,23.394 C22.406,23.394 23.946,23.191 25.485,23.121 C28.511,22.984 31.614,22.825 34.730,22.629 C36.312,22.532 37.872,22.350 39.387,22.243 Z"/>
</svg>
